src/basic/100/u25A6-grid.svg

<svg width="92" height="128" viewBox="0 0 92 128" fill="none" xmlns="http://www.w3.org/2000/svg">
<path fill-rule="evenodd" clip-rule="evenodd" d="M0,18h0.5h29.0007h0.5v0.5v29.0007v0.5h-0.5h-29.0007h-0.5v-0.5v-29.0007zM1,19v28.0007h28.0007v-28.0007zM31,18h0.5h29.0007h0.5v0.5v29.0007v0.5h-0.5h-29.0007h-0.5v-0.5v-29.0007zM32,19v28.0007h28.0007v-28.0007zM91.5007,18h0.5v0.5v29.0007v0.5h-0.5h-29.0007h-0.5v-0.5v-29.0007v-0.5h0.5zM91.0007,47.0007v-28.0007h-28.0007v28.0007zM0,49h0.5h29.0007h0.5v0.5v29.0007v0.5h-0.5h-29.0007h-0.5v-0.5v-29.0007zM1,50v28.0007h28.0007v-28.0007zM60.5007,49h0.5v0.5v29.0007v0.5h-0.5h-29.0007h-0.5v-0.5v-29.0007v-0.5h0.5zM60.0007,78.0007v-28.0007h-28.0007v28.0007zM62,49h0.5h29.0007h0.5v0.5v29.0007v0.5h-0.5h-29.0007h-0.5v-0.5v-29.0007zM63,50v28.0007h28.0007v-28.0007zM29.5007,80h0.5v0.5v29.001v0.5h-0.5h-29.0007h-0.5v-0.5v-29.001v-0.5h0.5zM29.0007,109.001v-28.001h-28.0007v28.001zM31,80h0.5h29.0007h0.5v0.5v29.001v0.5h-0.5h-29.0007h-0.5v-0.5v-29.001zM32,81v28.001h28.0007v-28.001zM91.5007,80h0.5v0.5v29.001v0.5h-0.5h-29.0007h-0.5v-0.5v-29.001v-0.5h0.5zM91.0007,109.001v-28.001h-28.0007v28.001z" fill="black"/>
</svg>

<svg width="92" height="128" viewBox="0 0 92 128" fill="none" xmlns="http://www.w3.org/2000/svg">
<path fill-rule="evenodd" clip-rule="evenodd" d="M0 18H0.5H29.5007H30.0007V18.5V47.5007V48.0007H29.5007H0.5H0V47.5007V18.5V18ZM1 19V47.0007H29.0007V19H1ZM31 18H31.5H60.5007H61.0007V18.5V47.5007V48.0007H60.5007H31.5H31V47.5007V18.5V18ZM32 19V47.0007H60.0007V19H32ZM62.5 18H62V18.5V47.5007V48.0007H62.5H91.5007H92.0007V47.5007V18.5V18H91.5007H62.5ZM63 47.0007V19H91.0007V47.0007H63ZM0 49H0.5H29.5007H30.0007V49.5V78.5007V79.0007H29.5007H0.5H0V78.5007V49.5V49ZM1 50V78.0007H29.0007V50H1ZM31.5 49H31V49.5V78.5007V79.0007H31.5H60.5007H61.0007V78.5007V49.5V49H60.5007H31.5ZM32 78.0007V50H60.0007V78.0007H32ZM62 49H62.5H91.5007H92.0007V49.5V78.5007V79.0007H91.5007H62.5H62V78.5007V49.5V49ZM63 50V78.0007H91.0007V50H63ZM0.5 80H0V80.5V109.501V110.001H0.5H29.5007H30.0007V109.501V80.5V80H29.5007H0.5ZM1 109.001V81H29.0007V109.001H1ZM31 80H31.5H60.5007H61.0007V80.5V109.501V110.001H60.5007H31.5H31V109.501V80.5V80ZM32 81V109.001H60.0007V81H32ZM62.5 80H62V80.5V109.501V110.001H62.5H91.5007H92.0007V109.501V80.5V80H91.5007H62.5ZM63 109.001V81H91.0007V109.001H63Z" fill="black"/>
</svg>
